X:1
T:A Song in the Night
T:A Song in the Night
T:Edmund Simon Lorenz
T:Lizzie DeArmond, 1912
T:Public Domain Courtesy of the Cyber Hymnal™
T:Public Domain Courtesy of the Cyber Hymnal™
C:Edmund Simon Lorenz
Z:Public Domain
Z:Courtesy of the Cyber Hymnal™
%%score ( 1 2 ) ( 3 4 )
L:1/8
M:6/4
K:G
V:1 treble 
V:2 treble 
V:3 bass 
V:4 bass 
V:1
 [DB]2 | [DB]2 [B,G]2 [CE]2 [B,D]2 [^A,^C]2 [B,D]2 | [B,E]2 [G,B,]2 [B,E]2 [B,D]4 [B,G]2 | %3
w: 1.~A|song float- ed down thro’ the|si- lence of night, En-|
w: 2.~The|mount- ains and hill- tops re-|e- choed the lay, The|
w: 3.~The|hope of the years, the Re-|deem- er di- vine, Is|
 [DF]2 [EG]2 [FA]2 [Ac]2 [Fd]2 [FA]2 | [GB]6- [GB]4 [DB]2 | %5
w: fold- ing each sha- dow- y|plain, * Glad|
w: earth shone with heav- en- ly|light; * The|
w: born in the Beth- le- hem|town; * From|
 [DB]2 [B,G]2 [CE]2 [B,D]2 [^A,^C]2 [B,D]2 | [B,E]2 [G,B,]2 [B,E]2 [B,D]4 [DE]2 | %7
w: wel- come to Je- sus, the|dear Christ- mas guest, All|
w: word of the pro- phets, the|Gos- pel of love, Came|
w: throne to a man- ger, the|Lord of the skies, The|
 [DF]2 [FA]2 [GB]2 [^CA]2 [CG]2 [CE]2 | (z2 [FA]4) z2 x4 ||[M:3/4]"^Refrain" B4 z2 | B4 z2 | %11
w: glo- ri- ous rang the re-|||frain.|
w: true on that won- der- ful|||night.|
w: King pure and ho- ly comes|||down.|
 B2 G3 E | D4 z2 D2 G2 [DB]2 | d2 e2 (z B) | [Fcd]6 | [CDF]6 | [DFc]4 z2 | [DFc]4 z2 c2 A3 G | %18
w: |||||||
w: Peace, peace, peace|on the earth! Hear|the sweet *||an-|them|re- sound- * ing!|
w: |||||||
 F4 z2 | E2 F2 [FA]2 | c2 e2 (z A) | [Bd]6 | [GB]4 z2 | d4 z2 | d4 z2 | B2 G3 E | D4 z2 | %27
w: |||||||||
w: Peace,|peace, peace on|the earth! *||Mes-|sage|the|shep- herds as-|tound-|
w: |||||||||
 G2 A2 [=FGB]2 | e2 B2 [=GBe]2 | [E-A-d]6 | [EAc]4 z2 | [EAe]2 [EAe]2 [FAe]2 | [E^Gd]4 [EAc]2 | %33
w: ||||||
w: ing! Joy, joy,|joy to the|world!|and|sin ’tis con-|found- ing,|
w: ||||||
 [DFB]2 [DFB]2 [DFB]2 | [CFA]4 [B,EG]2 | [EG]2 [DF]2 [CE]2 | [B,D]2 [Ec]2 [DB]2 | [DB]4 [CA]2 | %38
w: |||||
w: Heav’n’s glad- ness|voic- ing,|Rapt with re-|joic- ing, An-|gels are|
w: |||||
 [B,G]4 |] %39
w: |
w: sing-|
w: |
V:2
 x2 | x12 | x12 | x12 | x12 | x12 | x12 | x12 | A6- D2 E2 x2 ||[M:3/4] x6 | x6 | x6 | x6 B,4 x2 | %13
 [GB]4 [DG]2 | x6 | x6 | x6 | x12 | x6 | C4 x2 | [FA]4 F2 | x6 | x6 | x6 | x6 | x6 | x6 | x6 | %28
 [E^G]4 x2 | x6 | x6 | x6 | x6 | x6 | x6 | x6 | x6 | x6 | x4 |] %39
V:3
 z2 | G,,6 G,6 | G,,6 G,4 z2 | D,6 E,,6 | (G,,2 B,,2 D,2 G,4) z2 | G,,6 G,6 | G,,6 G,4 [G,B,]2 | %7
 A,6 [A,,E,]4 [G,A,]2 | A,6- [D,A,]4 z2 ||[M:3/4] G,,2 [D,G,B,]2 [D,G,B,]2 | %10
 (G,,2 [D,G,B,]2 [D,G,B,]2) | G,,2 [D,G,B,]2 [D,G,B,]2 | %12
 (G,,2 [D,G,B,]2 [D,G,B,]2) G,,2 [D,G,B,]2 [D,G,B,]2 | G,,2 [D,G,B,]2 [D,G,B,]2 | %14
 (A,,2 [D,A,]2 [D,A,]2) | (A,,2 [D,A,]2 [D,A,]2) | (D,,2 [D,F,A,]2 [D,A,]2) | %17
 (D,,2 [D,F,A,]2 [D,A,]2) D,,2 [D,F,A,]2 [D,F,A,]2 | (D,,2 [D,F,A,]2 [D,F,A,]2) | %19
 D,,2 [D,F,A,]2 [D,F,A,]2 | D,,2 [D,F,C]2 [D,F,C]2 | (G,,2 [D,G,B,]2 [D,G,B,]2) | %22
 (G,,2 [D,G,B,]2 [D,G,B,]2) | (G,,2 [D,G,B,]2 [D,G,B,]2) | (G,,2 [D,G,B,]2 [D,G,B,]2) | %25
 G,,2 [D,G,B,]2 [D,G,B,]2 | (G,,2 [D,G,B,]2 [D,G,B,]2) | G,,2 [D,G,B,]2 [D,G,B,]2 | %28
 E,,2 [E,^G,B,]2 [E,G,B,]2 | (A,,2 [E,A,C]2 [E,A,C]2) | (A,,2 [E,A,C]2 [E,A,C]2) | %31
 [C,C]2 [C,C]2 [C,C]2 | [B,,B,]4 [A,,A,]2 | [D,,D,]2 [D,,D,]2 [D,,D,]2 | [^D,,^D,]4 [E,,E,]2 | %35
 [C,G,]6 | [D,G,]6 | [D,F,]4 [D,,D,]2 | [G,,D,]4 |] %39
V:4
 x2 | x12 | x12 | x12 | x12 | x12 | x12 | x12 | F,2 F,2 E,2 x6 ||[M:3/4] x6 | x6 | x6 | x12 | x6 | %14
 x6 | x6 | x6 | x12 | x6 | x6 | x6 | x6 | x6 | x6 | x6 | x6 | x6 | x6 | x6 | x6 | x6 | x6 | x6 | %33
 x6 | x6 | x6 | x6 | x6 | x4 |] %39

